!!!COM: Robert Schumann
!!!CNT: Deutsch
!!!TXO: Deutsch
!!!OTL: "Geka2mpft hat meine Barke"
!!!LYR: "Elisabeth Kulmann
!!!OPR: Sieben Lieder
!!!OPS: Op. 104
!!!ONM: No. 7
!!!ENC: Leigh VanHandel
!!!YOR: Schumann Lieder - Max Friedlaender, ed.,
!!!YOR: New York: C. F. Peters, Vol. 3
!!!ODT: 1851/
**kern	**silbe
*staff1	*
*clefG2	*
*k[b-e-a-]	*
*met(C)	*
*M4/4	*
=1	=1
2r	.
4r	.
8r	.
{8b-	{Ge-
=2	=2
4.cc	-ka2mpft
8cc	hat
4.dd	mel-
16ee-	-ne
16ff	|
=3	=3
4ff	Bar-
4a-}	-ke}
8r	.
{8a-	{mit
8.g	der
16g	er-
=4	=4
2.bn	-zu2rn-
4cc	-ten
=5	=5
4.f}	Flut.}
{8f	{Ich
4.b-	seh'
8f#	des
=6	=6
4.a-	Him-
8g	-mels
4g	Mar-
8g	-ke,
8g	es
=7	=7
4.ee-	sinkt
8g	des
4g	Mee-
4dd	-res
=8	=8
2b-}	Wut.}
8r	.
{8b-	{Ich
8b-	kann
8b-	dich
=9	=9
4.a-	nicht
8en	ver-
4g	-mei-
4f}	-den,}
=10	=10
4r	.
{4g	{o
4a-	Tod
4en	nicht
=11	=11
8g	mei-
8f	-ner
4f}	Wahl!}
4r	.
{4f	{Das
=12	=12
4.f	En-
8f	-de
4.f	mei-
8e-	-ner
=13	=13
4e-	Lei-
8d	-den
8d	be-
4.b-	-ginnt
8b-	der
=14	=14
4g-	Mut-
4e-	-ter
[2b-	Qual
=15	=15
4b-]}	|}
4r	.
4r	.
{4b-	{O
=16	=16
4.bn	Mut-
8b	-ter-
4cc	-herz,
4ee-	dich
=17	=17
4dd	dru2-
8cc	-cke
8cc	dein
4b-	Schmerz
4cc	nicht
=18	=18
2.a-	all-
4b-	-zu-
=19	=19
4g}	-sehr!}
{4b-	{Nur
4.bn	we-
8b	-nig
=20	=20
4.dd	Au-
8cc	-gen-
4cc	bli-
4cc	-cke
=21	=21
4ee-	trennt
8dd	uns
8cc	des
4g	To-
4an	-des
=22	=22
2b-}	Meer.}
4r	.
8r	.
{8b-	{Dort
=23	=23
4.cc	an-
8cc	-ge-
4.dd	-langt,
16ee-	ent-
16ff	|
=24	=24
4ff	wei-
4a-}	-che}
8r	.
{8a-	{ich
8.g	nim-
16g	-mer-
=25	=25
2.bn	-mehr
4cc	dem
=26	=26
4f}	Strand,}
{4f	{seh'
4.b-	stets
8f#	nach
=27	=27
4.a-	dir
8g	und
4g	rei-
8f	-che
8g	der
=28	=28
4.ee-	Lan-
8a-	-den-
4a-	-den
4a-	die
=29	=29
2g}	Hand.}
2r	.
==	==
*-	*-
